!!!!SEGMENT: pl-cz--iii-31--003_bolehovsky-josef--litaniae-virgo-prudentissima.krn
!!!cenid: 17xx:830
!!!COM: Bolehovský, Josef
!!!COM-rismid: pe30000404
!!!CDT: 1743-1811
!!!CNT: Czech
!!!OTL: Litaniae – Virgo prudentissima
!!!PDT:
!!!AGN: Sacred; Mass
!!!SMS-siglum: PL-CZ
!!!SMS-shelfmark: III-31
!!!SMS-shelfwork: 001-003 M
!!!SMS-variant:
!!!SMS-altvar:
!!!NIFC-rismid: 300237604
!!!URL-scan: http://repozytorium.nifc.pl/skany/pl-cz-nut--iii-31
!!!ONB-nifc: UWAGA: części Litanii: Kyrie, Sancta Maria, Virgo prudentissima, Rosa mystica, Salus infirmorum, Regina angelorum, Agnus Dei
**kern	**fba	**kern	**kern	**kern	**kern	**text	**kern	**text	**kern	**text	**kern	**text	**kern	**kern
*part10	*	*part9	*part8	*part7	*part6	*part6	*part5	*part5	*part4	*part4	*part3	*part3	*part2	*part1
*	*	*group3	*group3	*group3	*group2	*	*group2	*	*group2	*	*group2	*	*group1	*group1
*staff10	*	*staff9	*staff8	*staff7	*staff6	*staff6	*staff5	*staff5	*staff4	*staff4	*staff3	*staff3	*staff2	*staff1
*I"Organo	*	*I"Violino 2do	*I"Violino Primo	*I"Violino Principali	*I"Baſso.	*	*I"Tenore	*	*I"Alto.	*	*I"Canto.	*	*I"Clarino Secundo in D#	*I"Clarino Primo in D#
*I'org	*	*I'vl II	*I'vl I	*I'vn p	*I'B	*	*I'T	*	*I'A	*	*I'C	*	*I'clno II	*I'clno I
*clefF4	*	*clefG2	*clefG2	*clefG2	*clefF4	*	*clefC4	*	*clefC3	*	*clefC1	*	*clefG2	*clefG2
*	*	*	*	*	*	*	*	*	*	*	*	*	*ITrd-1c-2	*ITrd-1c-2
*k[f#c#]	*	*k[f#c#]	*k[f#c#]	*k[f#c#]	*k[f#c#]	*	*k[f#c#]	*	*k[f#c#]	*	*k[f#c#]	*	*k[f#c#]	*k[f#c#]
*D:	*	*D:	*D:	*D:	*D:	*	*D:	*	*D:	*	*D:	*	*D:	*D:
*M4/4	*	*M4/4	*M4/4	*M4/4	*M4/4	*	*M4/4	*	*M4/4	*	*M4/4	*	*M4/4	*M4/4
*met(c)	*	*met(c)	*met(c)	*met(c)	*met(c)	*	*met(c)	*	*met(c)	*	*met(c)	*	*met(c)	*met(c)
=1	=1	=1	=1	=1	=1	=1	=1	=1	=1	=1	=1	=1	=1	=1
*	*	*	*tremolo	*	*	*	*	*	*	*	*	*	*	*
*	*	*16\right	*2\right	*	*	*	*	*	*	*	*	*	*	*
!	!	!	!	!	!LO:TX:a:t=P:problem:przy kluczu [C# F#]	!	!LO:TX:a:t=P:problem:przy kluczu [c# F#]	!	!	!	!LO:TX:a:t=P:problem:w źródle przy kluczu krzyżyk cis oktawę wyżej	!	!	!
!	!	!	!	!	!LO:TX:a:Bi:t=Tutti	!	!LO:TX:a:B:t=T&colon;	!	!LO:TX:b:i:t=Tutti	!	!LO:TX:a:B:t=allo	!	!	!
!LO:TX:a:B:t=allo	!	!LO:TX:a:B:t=allo	!LO:TX:a:B:t=allo	!LO:TX:a:t=P:problem:partia tylko w części "Regina angelorum"	!LO:TX:a:B:t=allo.	!	!LO:TX:a:B:t=allo	!	!	!	!LO:TX:b:Bi:t=Tutti	!	!LO:TX:a:B:t=allo	!LO:TX:a:B:t=allo
8d\L	.	16ff#\LL	16aa\LL	1ryy	8d\	Vir-	8d\	Vir-	8a\	Vir-	8ff#\	Vir-	4f#/	4dd\
.	.	16ff#\	16aa\	.	.	.	.	.	.	.	.	.	.	.
8D\J	.	16ff#\	16aa\	.	8D\	-go	8d\	-go	8a\	-go	8ff#\	-go	.	.
.	.	16ff#\JJ	16aa\	.	.	.	.	.	.	.	.	.	.	.
*	*	*tremolo	*	*	*	*	*	*	*	*	*	*	*	*
*	*	*4\right	*	*	*	*	*	*	*	*	*	*	*	*
16D\LL	.	16ff#\LL	16aa\	.	16D\LL	pru-	8d\	Pru-	8a\	Pru-	8ff#\	Pru-	8r	8r
16E\	.	16ff#\	16aa\	.	16E\JJ	.	.	.	.	.	.	.	.	.
16F#\	6	16ff#\	16aa\	.	16F#\LL	-den-	8d\	-den-	8a\	-den-	8ff#\	-den-	8d/	8dd\
16D\JJ	.	16ff#\JJ	16aa\JJ	.	16D\JJ	.	.	.	.	.	.	.	.	.
!LO:TX:a:t=P:problem:mixed beam	!	!	!	!	!	!	!	!	!	!	!	!	!	!
*	*	*2\right	*	*	*	*	*	*	*	*	*	*	*	*
8A\L	.	16ee\LL	16aa\LL	.	8.A\	-tiſ-	8.c#\	-tiſ-	8.a\	-tiſ-	8.ee\	-tiſ-	8a/L	8ee\L
.	.	16ee\	16aa\	.	.	.	.	.	.	.	.	.	.	.
8AA/J	.	16ee\	16aa\	.	.	.	.	.	.	.	.	.	16a/L	16ee\L
.	.	16ee\	16aa\	.	16AA/	-si-	16c#\	-si-	16a\	-si-	16ee\	-si-	16a/JJ	16ee\JJ
16A\LL	.	16ee\	16aa\	.	4AA/	-ma	4c#\	-ma	4a\	-ma	4ee\	-ma	4a/	4ee\
16B\	.	16ee\	16aa\	.	.	.	.	.	.	.	.	.	.	.
16c#\	6	16ee\	16aa\	.	.	.	.	.	.	.	.	.	.	.
16A\JJ	.	16ee\JJ	16aa\JJ	.	.	.	.	.	.	.	.	.	.	.
=2	=2	=2	=2	=2	=2	=2	=2	=2	=2	=2	=2	=2	=2	=2
*	*	*8\right	*	*	*	*	*	*	*	*	*	*	*	*
!	!	!LO:TX:a:t=P:problem:mixed beam	!	!	!	!	!	!	!	!	!	!	!	!
8d\L	.	8ff#\L	16aa\LL	1ryy	8D\L	o-	4d\	O-	8a\L	O-	8ff#\L	O-	8dd\L	8ff#\L
.	.	.	16ff#\	.	.	.	.	.	.	.	.	.	.	.
8B\	.	8a/	16ee\	.	8B\J	.	.	.	8f#\J	.	8dd\J	.	8ff#\	8aa\
.	.	.	16dd\JJ	.	.	.	.	.	.	.	.	.	.	.
8G\	6 5	8g/	16ff#\LL	.	8G\	-ra	8B\	-ra	8g\	-ra	8ee\	-ra	8ee\	8gg\
.	.	.	16ee\	.	.	.	.	.	.	.	.	.	.	.
8A\J	.	8e/J	16dd\	.	8A\	pro	8B\	pro	8e\	pro	8cc#\	pro	8a\J	8ee\J
.	.	.	16cc#\JJ	.	.	.	.	.	.	.	.	.	.	.
!	!	!	!	!	!LO:SIC:l:s=no-:v	!	!	!	!	!	!	!	!	!
4D\	.	16f#/LL	16dd\LL	.	8D\	ni-	8A\	no-	8f#\	no-	8dd\	no-	4dd\	4ff#\
.	.	16f#/	16dd\	.	.	.	.	.	.	.	.	.	.	.
.	.	16g/	16ee\	.	8D\	-bis	8A\	-bis	8f#\	-bis	8dd\	-bis	.	.
.	.	16a/JJ	16ff#\JJ	.	.	.	.	.	.	.	.	.	.	.
4r	.	16b\LL	16gg\LL	.	4r	.	4r	.	4r	.	4r	.	4r	4r
.	.	16cc#\	16aa\	.	.	.	.	.	.	.	.	.	.	.
.	.	16dd\	16bb\	.	.	.	.	.	.	.	.	.	.	.
.	.	16ee\JJ	16ccc#\JJ	.	.	.	.	.	.	.	.	.	.	.
=3	=3	=3	=3	=3	=3	=3	=3	=3	=3	=3	=3	=3	=3	=3
8d\L	.	16ff#\LL	16ddd\LL	1ryy	8d\	Vir-	8d\	Vi-	8a\	Vir-	8ff#\	Vir-	4f#/	4dd\
.	.	16ff#\	16aa\	.	.	.	.	.	.	.	.	.	.	.
8D\J	.	16ff#\	16aa\	.	8D\	-go	8d\	-rgo	8a\	-go	8ff#\	-go	.	.
.	.	16ff#\	16aa\JJ	.	.	.	.	.	.	.	.	.	.	.
16D\LL	.	16ff#\	16aa\LL	.	16D\LL	ve-	8d\	ve-	8a\	ve-	8ff#\	ve-	8r	8r
16E\	.	16ff#\	16aa\	.	16E\JJ	.	.	.	.	.	.	.	.	.
16F#\	6	16ff#\	16aa\	.	16F#\LL	-ne-	8d\	-ne-	8a\	-ne-	8ff#\	-ne:-	8d/	8dd\
16D\JJ	.	16ff#\JJ	16aa\JJ	.	16D\JJ	.	.	.	.	.	.	.	.	.
!LO:TX:a:t=P:problem:mixed beam	!	!	!	!	!	!	!	!	!	!	!	!	!	!
8A\L	.	16ee\LL	16aa\LL	.	4A\	-ran-	4c#\	-ran-	4a\	-ran-	4ee\	-ran-	8a/L	8ee\L
.	.	16ee\	16aa\	.	.	.	.	.	.	.	.	.	.	.
8AA/J	.	16ee\	16aa\	.	.	.	.	.	.	.	.	.	16a/L	16ee\L
.	.	16ee\	16aa\	.	.	.	.	.	.	.	.	.	16a/JJ	16ee\JJ
16A\LL	.	16ee\	16aa\	.	4AA/	-da	4c#\	-da	4a\	-da	4ee\	-da	4a/	4ee\
16B\	.	16ee\	16aa\	.	.	.	.	.	.	.	.	.	.	.
16c#\	6	16ee\	16aa\	.	.	.	.	.	.	.	.	.	.	.
16A\JJ	.	16ee\JJ	16aa\JJ	.	.	.	.	.	.	.	.	.	.	.
*	*	*	*Xtremolo	*	*	*	*	*	*	*	*	*	*	*
=4	=4	=4	=4	=4	=4	=4	=4	=4	=4	=4	=4	=4	=4	=4
!	!	!	!	!	!	!	!LO:LB:g=original	!	!	!	!	!	!	!
!	!	!LO:TX:a:t=P:problem:mixed beam	!	!	!	!	!	!	!	!	!	!	!	!
8d\L	.	8ff#\L	16aa\LL	1ryy	8D\L	o-	4d\	o-	8a\L	o-	8ff#\L	O-	8dd\L	8ff#\L
.	.	.	16ff#\	.	.	.	.	.	.	.	.	.	.	.
8B\	.	8a/	16ee\	.	8B\J	.	.	.	8f#\J	.	8dd\J	.	8ff#\	8aa\
.	.	.	16dd\JJ	.	.	.	.	.	.	.	.	.	.	.
8G\	6 5	8g/	8ee\L	.	8G\	-ra	8B\	-ra	8g\	-ra	8ee\	-ra	8ee\	8gg\
!	!	!	!	!	!	!	!	!	!LO:LB:g=original	!	!	!	!	!
8A\J	.	8e/J	8cc#\J	.	8A\	pro	8B\	pro	8e\	pro	8cc#\	pro	8a\J	8ee\J
!	!	!	!	!	!LO:LB:g=original	!	!	!	!	!	!LO:LB:g=original	!	!	!
!	!	!	!LO:TX:a:t=P:problem:mixed beam	!	!	!	!	!	!	!	!	!	!	!
4D\	.	16f#/LL	16dd\LL	.	8D\	no-	8A\	no-	8f#\	no-	8dd\	no-	4dd\	4ff#\
.	.	16d/	16f#/	.	.	.	.	.	.	.	.	.	.	.
.	.	16e/	16g/	.	8D\	-bis	8A\	-bis	8f#\	-bis	8dd\	-bis	.	.
.	.	16f#/JJ	16a/JJ	.	.	.	.	.	.	.	.	.	.	.
4r	.	16g\LL	16b\LL	.	4r	.	4r	.	4r	.	4r	.	4r	4r
.	.	16a\	16cc#\	.	.	.	.	.	.	.	.	.	.	.
.	.	16b\	16dd\	.	.	.	.	.	.	.	.	.	.	.
.	.	16cc#\JJ	16ee\JJ	.	.	.	.	.	.	.	.	.	.	.
=5	=5	=5	=5	=5	=5	=5	=5	=5	=5	=5	=5	=5	=5	=5
!	!	!	!LO:LB:g=original	!	!	!	!	!	!	!	!	!	!LO:LB:g=original	!
16D\LL	.	4.dd\	4.ff#\	1ryy	8D\	Vir-	4d\	Vir-	4a\	Vir-	4.ff#\	Vir-	4dd\	4ff#\
16d\	.	.	.	.	.	.	.	.	.	.	.	.	.	.
16d\	.	.	.	.	16d\LL	-go	.	.	.	.	.	.	.	.
!LO:TX:a:t=c	!	!	!	!	!	!	!	!	!	!	!	!	!	!
16c#\JJ	.	.	.	.	16c#\JJ	.	.	.	.	.	.	.	.	.
16B\LL	.	.	.	.	16B\LL	prae-	4e\	-go	4b\	-go	.	.	4r	4r
16A\	.	.	.	.	16A\JJ	.	.	.	.	.	.	.	.	.
16G#X\	.	8ff#\	8ddd\	.	16G#X\LL	-di-	.	.	.	.	8dd\	-go	.	.
16F#\JJ	.	.	.	.	16F#\JJ	.	.	.	.	.	.	.	.	.
!LO:LB:g=original	!	!	!	!	!	!	!	!	!	!	!	!	!	!
16E\LL	8	4.cc#\	4.ee\	.	8E\L	-can-	4c#\	Prae-	4g#X\	prae-	4.ee\	prae-	4a\	4ee\
16c#\	.	.	.	.	.	.	.	.	.	.	.	.	.	.
16c#\	.	.	.	.	16c#\L	.	.	.	.	.	.	.	.	.
16B\JJ	.	.	.	.	16B\JJ	.	.	.	.	.	.	.	.	.
16A\LL	.	.	.	.	16A\LL	.	4d\	-di-	4a\	-di-	.	.	4r	4r
16G#X\	.	.	.	.	16G#X\	.	.	.	.	.	.	.	.	.
16F#\	.	8ee\	8ccc#\	.	16F#\	.	.	.	.	.	8cc#\	-di-	.	.
16E\JJ	.	.	.	.	16E\JJ	.	.	.	.	.	.	.	.	.
=6	=6	=6	=6	=6	=6	=6	=6	=6	=6	=6	=6	=6	=6	=6
!	!	!LO:LB:g=original	!	!	!	!	!	!	!	!	!	!	!	!LO:LB:g=original
16D\LL	8	4.b\	4.dd\	1ryy	8D\L	.	4B\	-can-	(4f#\	-can-	4.dd\	-can-	8ee\L	8ee\L
16B\	.	.	.	.	.	.	.	.	.	.	.	.	.	.
16B\	.	.	.	.	16B\L	.	.	.	.	.	.	.	16ee\L	16ee\L
16A\JJ	.	.	.	.	16A\JJ	.	.	.	.	.	.	.	16ee\JJ	16ee\JJ
!	!	!	!	!	!LO:SIC:s=16G#:v	!	!	!	!	!	!	!	!	!
16G#X\LL	3	.	.	.	16G\LL	.	4e\	-da	4g\)	.	.	.	8ee\L	8ee\L
16F#\	.	.	.	.	16F#\	.	.	.	.	.	.	.	.	.
16E\	.	8dd\	8bb\	.	16E\	.	.	.	.	.	16ee\LL	.	8ee\J	8ee\J
16D\JJ	.	.	.	.	16D\JJ	.	.	.	.	.	16dd\JJ	.	.	.
8C#/L	.	4cc#\	4aa\	.	8C#/	-da	8A\	.	8e\	-da	8cc#\	-da	4a/	4ee\
8AA/J	.	.	.	.	8AA/	o-	8A\	o-	8e\	o-	8cc#\	o-	.	.
4r	.	4r	4r	.	8A\	-ra	8A\	-ra	8e\	-ra	8cc#\	-ra	4r	4r
.	.	.	.	.	8A\	pro	8A\	pro	8e\	pro	8cc#\	pro	.	.
=7	=7	=7	=7	=7	=7	=7	=7	=7	=7	=7	=7	=7	=7	=7
*tremolo	*	*Xtremolo	*	*	*2\right	*	*	*	*2\right	*	*2\right	*	*	*
!	!	!	!	!	!	!	!	!	!	!	!LO:TX:a:t=P:problem:niejednoznaczny zapis łuk/ligatura	!	!	!
*2\right	*	*	*	*	*	*	*	*	*	*	*	*	*	*
8G#X\L	6 5	16bLL 16e/	16dd\LL	1ryy	2G#X\	no-	1e	no-	(2b\	no-	[2dd\	no-	4ee\	4ee\
.	.	16b 16e/	16bb\	.	.	.	.	.	.	.	.	.	.	.
8G#\	.	16b 16e/	16bb\	.	.	.	.	.	.	.	.	.	.	.
.	.	16bJJ 16e/	16aa\JJ	.	.	.	.	.	.	.	.	.	.	.
*	*	*tremolo	*	*	*	*	*	*	*	*	*	*	*	*
8G#\	.	16bLL 16e/	16gg#X\LL	.	.	.	.	.	.	.	.	.	4r	4r
.	.	16b 16e/	16ff#\	.	.	.	.	.	.	.	.	.	.	.
8G#\J	.	16b 16e/	16ee\	.	.	.	.	.	.	.	.	.	.	.
.	.	16bJJ 16e/	16dd\JJ	.	.	.	.	.	.	.	.	.	.	.
8A\L	.	16cc#LL 16e/	16cc#\LL	.	2A\	.	.	.	2a\)	.	2dd\]	.	4a/	4ee\
.	.	16cc# 16e/	16ee\	.	.	.	.	.	.	.	.	.	.	.
8A\	.	16cc# 16e/	16ee\	.	.	.	.	.	.	.	.	.	.	.
.	.	16cc# 16e/	16aa\JJ	.	.	.	.	.	.	.	.	.	.	.
8A\	.	16cc# 16e/	16aa\LL	.	.	.	.	.	.	.	.	.	4r	4r
.	.	16cc# 16e/	16ccc#\	.	.	.	.	.	.	.	.	.	.	.
8A\J	.	16cc# 16e/	16ccc#\	.	.	.	.	.	.	.	.	.	.	.
.	.	16cc#JJ 16e/	16aa\JJ	.	.	.	.	.	.	.	.	.	.	.
=8	=8	=8	=8	=8	=8	=8	=8	=8	=8	=8	=8	=8	=8	=8
!	!	!	!	!	!LO:LB:g=original	!	!	!	!	!	!	!	!	!
*	*	*	*	*	*	*	*2\right	*	*	*	*	*	*	*
!LO:SIC:s=2G#:v:cztery ósemki	!	!	!	!	!	!	!	!	!	!	!	!	!	!
8G\L	6 5	16bLL 16e/	16dd\LL	1ryy	2G#X\	.	2e\	.	2b\	.	2dd\	.	4ee\	4ee\
.	.	16b 16e/	16bb\	.	.	.	.	.	.	.	.	.	.	.
8G\	.	16b 16e/	16bb\	.	.	.	.	.	.	.	.	.	.	.
.	.	16b 16e/	16aa\JJ	.	.	.	.	.	.	.	.	.	.	.
8G\	.	16b 16e/	16gg#X\LL	.	.	.	.	.	.	.	.	.	4r	4r
.	.	16b 16e/	16ff#\	.	.	.	.	.	.	.	.	.	.	.
8G\J	.	16b 16e/	16ee\	.	.	.	.	.	.	.	.	.	.	.
*Xtremolo	*	*	*	*	*	*	*	*	*	*	*	*	*	*
.	.	16bJJ 16e/	16dd\JJ	.	.	.	.	.	.	.	.	.	.	.
!LO:TX:a:t=P:problem:mixed beam	!	!	!	!	!	!	!	!	!	!	!	!	!	!
16A\LL	.	16cc#LL 16e/	16cc#\LL	.	8A\	-bis	4e\	-bis	4a\	-bis	4cc#\	-bis	4a/	4ee\
16AA/	.	16cc# 16e/	16aa\	.	.	.	.	.	.	.	.	.	.	.
16A\	.	16cc# 16e/	16aa\	.	16A\LL	o-	.	.	.	.	.	.	.	.
16B\JJ	.	16cc# 16e/	16aa\JJ	.	16B\JJ	.	.	.	.	.	.	.	.	.
*	*	*	*tremolo	*	*	*	*	*	*	*	*	*	*	*
16c#\LL	.	16cc# 16e/	16aa\LL	.	16c#\LL	-ra	4e\	o-	4a\	o-	4cc#\	o-	4r	4r
16B\	.	16cc# 16e/	16aa\	.	16B\JJ	.	.	.	.	.	.	.	.	.
!LO:SIC:s=16G#:v	!	!	!	!	!	!	!	!	!	!	!	!	!	!
16A\	.	16cc# 16e/	16aa\	.	16A\LL	pro	.	.	.	.	.	.	.	.
16G\JJ	.	16cc#JJ 16e/	16aa\JJ	.	16G#\JJ	.	.	.	.	.	.	.	.	.
=9	=9	=9	=9	=9	=9	=9	=9	=9	=9	=9	=9	=9	=9	=9
!LO:TX:a:t=P:problem:mixed beam	!	!	!	!	!	!	!	!	!	!	!	!	!	!
16F#\LL	.	16cc#\LL	16aa\LL	1ryy	8F#\L	no-	4f#\	-ra	4a\	-ra	4cc#\	-ra	2r	2r
16FF#/	.	16cc#\	16aa\	.	.	.	.	.	.	.	.	.	.	.
16F#\	.	16cc#\	16aa\	.	16F#\L	.	.	.	.	.	.	.	.	.
!LO:SIC:s=16G#:v	!	!	!	!	!	!	!	!	!	!	!	!	!	!
16G\JJ	.	16cc#\	16aa\	.	16G#X\JJ	.	.	.	.	.	.	.	.	.
*	*	*	*	*	*16\right	*	*	*	*	*	*	*	*	*
16A\LL	.	16cc#\	16aa\	.	16A\LL	.	4f#\	pro	4a\	pro	4cc#\	pro	.	.
!LO:SIC:s=16G#:v	!	!	!	!	!	!	!	!	!	!	!	!	!	!
16G\	.	16cc#\	16aa\	.	16G#\	.	.	.	.	.	.	.	.	.
16F#\	.	16cc#\	16aa\	.	16F#\	.	.	.	.	.	.	.	.	.
16E\JJ	.	16cc#\JJ	16aa\JJ	.	16E\JJ	.	.	.	.	.	.	.	.	.
*	*	*	*	*	*16\left	*	*	*	*	*	*	*	*	*
16D\LL	6 5	16b\LL	16aa\LL	.	16D\LL	.	2e\	no-	(4a\	no-	2b\	no-	8ee\L	8ee\L
16BB\	.	16b\	16aa\	.	16BB\	.	.	.	.	.	.	.	.	.
16C#\	.	16b\	16aa\	.	16C#\	.	.	.	.	.	.	.	16ee\L	16ee\L
16D\JJ	.	16b\	16aa\JJ	.	16D\JJ	.	.	.	.	.	.	.	16ee\JJ	16ee\JJ
!LO:TX:a:t=P:problem:mixed beam	!	!	!	!	!	!	!	!	!	!	!	!	!	!
8E\L	4	16b\	16gg#\LL	.	4E\	.	.	.	4g#X\)	.	.	.	8ee\L	8ee\L
.	.	16b\	16gg#\	.	.	.	.	.	.	.	.	.	.	.
8EE/J	#	16b\	16gg#\	.	.	.	.	.	.	.	.	.	8ee\J	8ee\J
.	.	16b\JJ	16gg#\JJ	.	.	.	.	.	.	.	.	.	.	.
*	*	*Xtremolo	*	*	*	*	*	*	*	*	*	*	*	*
=10	=10	=10	=10	=10	=10	=10	=10	=10	=10	=10	=10	=10	=10	=10
!	!	!	!	!	!	!	!LO:LB:g=original	!	!	!	!	!	!	!
4AA/	.	4cc#\	4aa\	1ryy	4AA/	-bis	4e\	-bis	4a\	-bis	4cc#\	-bis	4a/	4ee\
4r	.	4r	8r	.	4r	.	4r	.	4r	.	4r	.	4r	4r
.	.	.	(32a/LLL	.	.	.	.	.	.	.	.	.	.	.
.	.	.	32b/	.	.	.	.	.	.	.	.	.	.	.
.	.	.	32cc#/	.	.	.	.	.	.	.	.	.	.	.
.	.	.	32dd/JJJ)	.	.	.	.	.	.	.	.	.	.	.
!	!	!	!LO:LB:g=original	!	!	!	!	!	!	!	!	!	!	!
2r	.	16A/LL	4.ee\	.	2r	.	2r	.	2r	.	2r	.	2r	2r
.	.	16e/	.	.	.	.	.	.	.	.	.	.	.	.
.	.	16c#/	.	.	.	.	.	.	.	.	.	.	.	.
.	.	16e/JJ	.	.	.	.	.	.	.	.	.	.	.	.
.	.	16A/LL	.	.	.	.	.	.	.	.	.	.	.	.
.	.	16e/	.	.	.	.	.	.	.	.	.	.	.	.
.	.	16c#/	(32dd\LLL	.	.	.	.	.	.	.	.	.	.	.
.	.	.	32cc#\	.	.	.	.	.	.	.	.	.	.	.
.	.	16e/JJ	32b\	.	.	.	.	.	.	.	.	.	.	.
.	.	.	32a\JJJ)	.	.	.	.	.	.	.	.	.	.	.
=11	=11	=11	=11	=11	=11	=11	=11	=11	=11	=11	=11	=11	=11	=11
!LO:LB:g=original	!	!	!	!	!	!	!	!	!LO:LB:g=original	!	!LO:LB:g=original	!	!	!
!LO:TX:a:t=1	!	!	!	!	!	!	!LO:TX:a:t=1	!	!	!	!	!	!	!
1r	.	16B/LL	16g#/LL	1ryy	1r	.	1r	.	1r	.	1r	.	1r	1r
.	.	16e/	16g#/	.	.	.	.	.	.	.	.	.	.	.
.	.	16d/	16g#/	.	.	.	.	.	.	.	.	.	.	.
.	.	16e/JJ	16g#/	.	.	.	.	.	.	.	.	.	.	.
.	.	16B/LL	16g#/	.	.	.	.	.	.	.	.	.	.	.
.	.	16e/	16g#/	.	.	.	.	.	.	.	.	.	.	.
.	.	16d/	16g#/	.	.	.	.	.	.	.	.	.	.	.
.	.	16e/JJ	16g#/JJ	.	.	.	.	.	.	.	.	.	.	.
.	.	16A/LL	8a/	.	.	.	.	.	.	.	.	.	.	.
.	.	16e/	.	.	.	.	.	.	.	.	.	.	.	.
.	.	16c#/	4ee\	.	.	.	.	.	.	.	.	.	.	.
.	.	16e/JJ	.	.	.	.	.	.	.	.	.	.	.	.
.	.	16A/LL	.	.	.	.	.	.	.	.	.	.	.	.
.	.	16c#/	.	.	.	.	.	.	.	.	.	.	.	.
.	.	16e/	(32dd\LLL	.	.	.	.	.	.	.	.	.	.	.
.	.	.	32cc#\	.	.	.	.	.	.	.	.	.	.	.
.	.	16c#/JJ	32b\	.	.	.	.	.	.	.	.	.	.	.
.	.	.	32a\JJJ)	.	.	.	.	.	.	.	.	.	.	.
=12	=12	=12	=12	=12	=12	=12	=12	=12	=12	=12	=12	=12	=12	=12
!	!	!LO:LB:g=original	!	!	!	!	!	!	!	!	!	!	!	!
2r	.	16G#X/LL	16dd\LL	1ryy	2r	.	2r	.	2r	.	2r	.	2r	2r
.	.	16e/	16dd\	.	.	.	.	.	.	.	.	.	.	.
.	.	16B/	16dd\	.	.	.	.	.	.	.	.	.	.	.
.	.	16e/JJ	16dd\	.	.	.	.	.	.	.	.	.	.	.
.	.	16G#/LL	16dd\	.	.	.	.	.	.	.	.	.	.	.
.	.	16e/	16dd\	.	.	.	.	.	.	.	.	.	.	.
.	.	16B/	16dd\	.	.	.	.	.	.	.	.	.	.	.
.	.	16e/JJ	16dd\JJ	.	.	.	.	.	.	.	.	.	.	.
16A\LL	.	8c#/	4.ee\	.	8r	.	8r	.	8r	.	8r	.	4a/	4ee\
16e\	.	.	.	.	.	.	.	.	.	.	.	.	.	.
16c#\	.	4e/	.	.	8A\	o-	8e\	o-	8a\	O-	8cc#\	O-	.	.
16e\JJ	.	.	.	.	.	.	.	.	.	.	.	.	.	.
16A\LL	.	.	.	.	8A\	-ra	8e\	-ra	8a\	-ra	8cc#\	-ra	4r	4r
16e\	.	.	.	.	.	.	.	.	.	.	.	.	.	.
16c#\	.	32d/LLL	(32dd\LLL	.	8A\	pro	8e\	pro	8a\	pro	8cc#\	pro	.	.
.	.	32c#/	32cc#\	.	.	.	.	.	.	.	.	.	.	.
16e\JJ	.	32B/	32b\	.	.	.	.	.	.	.	.	.	.	.
.	.	32A/JJJ	32a\JJJ)	.	.	.	.	.	.	.	.	.	.	.
=13	=13	=13	=13	=13	=13	=13	=13	=13	=13	=13	=13	=13	=13	=13
!	!	!	!	!	!LO:LB:g=original	!	!	!	!	!	!	!	!LO:LB:g=original	!
*	*	*tremolo	*	*	*	*	*	*	*	*	*	*	*	*
!	!	!LO:SIC:s=2G#:v:cztery ósemki	!	!	!	!	!	!	!	!	!	!	!	!
16B\LL	6	8G/L	16g#/LL	1ryy	2G#X\	no-	1e	no-	(2b\	no-	2dd\	no-	4ee\	4ee\
16e\	.	.	16g#/	.	.	.	.	.	.	.	.	.	.	.
16d\	.	8G/	16g#/	.	.	.	.	.	.	.	.	.	.	.
16e\JJ	.	.	16g#/	.	.	.	.	.	.	.	.	.	.	.
16B\LL	.	8G/	16g#/	.	.	.	.	.	.	.	.	.	4r	4r
16e\	.	.	16g#/	.	.	.	.	.	.	.	.	.	.	.
16d\	.	8G/J	16g#/	.	.	.	.	.	.	.	.	.	.	.
16e\JJ	.	.	16g#/JJ	.	.	.	.	.	.	.	.	.	.	.
16A\LL	.	8c#/	8a/	.	2A\	.	.	.	2a\)	.	2dd\	.	4a/	4ee\
16e\	.	.	.	.	.	.	.	.	.	.	.	.	.	.
16d\	.	4e/	4ee\	.	.	.	.	.	.	.	.	.	.	.
16e\JJ	.	.	.	.	.	.	.	.	.	.	.	.	.	.
16A\LL	.	.	.	.	.	.	.	.	.	.	.	.	4r	4r
16e\	.	.	.	.	.	.	.	.	.	.	.	.	.	.
16d\	.	32d/LLL	(32dd\LLL	.	.	.	.	.	.	.	.	.	.	.
.	.	32c#/	32cc#\	.	.	.	.	.	.	.	.	.	.	.
16e\JJ	.	32B/	32b\	.	.	.	.	.	.	.	.	.	.	.
.	.	32A/JJJ	32a\JJJ)	.	.	.	.	.	.	.	.	.	.	.
=14	=14	=14	=14	=14	=14	=14	=14	=14	=14	=14	=14	=14	=14	=14
!LO:SIC:s=2G#:v	!	!	!	!	!	!	!	!	!	!	!	!	!	!
16G\LL	.	8d/L	16dd\LL	1ryy	2G#X\	-bis	2e\	.	2b\	.	2dd\	.	4ee\	4ee\
16e\	.	.	16dd\	.	.	.	.	.	.	.	.	.	.	.
16B\	.	8d/	16dd\	.	.	.	.	.	.	.	.	.	.	.
16e\JJ	.	.	16dd\	.	.	.	.	.	.	.	.	.	.	.
!LO:SIC:s=2G#:v	!	!	!	!	!	!	!	!	!	!	!	!	!	!
16G\LL	.	8d/	16dd\	.	.	.	.	.	.	.	.	.	4r	4r
16e\	.	.	16dd\	.	.	.	.	.	.	.	.	.	.	.
16B\	.	8d/J	16dd\	.	.	.	.	.	.	.	.	.	.	.
16e\JJ	.	.	16dd\JJ	.	.	.	.	.	.	.	.	.	.	.
8A\	.	8c#/	8cc#\	.	8A\	o-	8e\	-bis	8a\	-bis	8cc#\	-bis	4a/	4ee\
*	*	*Xtremolo	*Xtremolo	*	*	*	*	*ij	*	*	*	*	*	*
8r	.	8r	8r	.	8A\	-ra	8e\	o-	8a\	o-	8cc#\	o-	.	.
4r	.	4r	4r	.	8A\	pro	8e\	-ra	8a\	-ra	8cc#\	-ra	4r	4r
.	.	.	.	.	8A\	no-	8e\	pro	8a\	pro	8cc#\	pro	.	.
=15	=15	=15	=15	=15	=15	=15	=15	=15	=15	=15	=15	=15	=15	=15
8A\L	.	4.cc#\	4.aa\	1ryy	8A\	-bis	8e\	no-	4.a\	no-	4.cc#\	no-	8a/L	4ee\
8A\J	.	.	.	.	8A\	.	8e\	-bis	.	.	.	.	8a/J	.
*	*	*	*	*	*	*	*	*Xij	*	*	*	*	*	*
4r	.	.	.	.	4r	.	4r	.	.	.	.	.	4r	4r
*	*	*Xtuplet	*Xtuplet	*	*	*	*	*	*Xtuplet	*	*Xtuplet	*	*	*
*	*	*24\right	*	*	*	*	*	*	*	*	*	*	*	*
.	.	24dd\LL	24bb\LL	.	.	.	.	.	24b\LL	.	24dd\LL	.	.	.
.	.	24cc#\	24aa\	.	.	.	.	.	24a\	.	24cc#\	.	.	.
.	.	24dd\JJ	24bb\JJ	.	.	.	.	.	24b\JJ	.	24dd\JJ	.	.	.
!	!	!	!	!	!	!	!	!	!	!	!	!	!LO:TX:a:t=1/2	!
8F#\L	5	4.cc#\	4.aa\	.	8F#\	o-	8f#\	O-	4.a\	.	4.cc#\	.	2r	2r
8F#\J	.	.	.	.	8F#\	-ra	8f#\	-ra	.	.	.	.	.	.
4r	.	.	.	.	4r	.	4r	.	.	.	.	.	.	.
.	.	24dd\LL	24bb\LL	.	.	.	.	.	24b\LL	.	24dd\LL	.	.	.
.	.	24cc#\	24aa\	.	.	.	.	.	24a\	.	24cc#\	.	.	.
.	.	24dd\JJ	24bb\JJ	.	.	.	.	.	24b\JJ	.	24dd\JJ	.	.	.
=16	=16	=16	=16	=16	=16	=16	=16	=16	=16	=16	=16	=16	=16	=16
!LO:LB:g=original	!	!	!	!	!	!	!LO:LB:g=original	!	!	!	!	!	!	!LO:LB:g=original
*	*	*tremolo	*tremolo	*	*	*	*	*	*	*	*	*	*	*
8r	.	16cc#\LL	16aa\LL	1ryy	8r	.	8r	.	8a\	-bis	8cc#\	-bis	4ee\	4aa\
.	.	16cc#\	16aa\	.	.	.	.	.	.	.	.	.	.	.
!LO:TX:a:t=P:problem:mixed beam	!	!	!	!	!	!	!	!	!	!	!	!	!	!
8F#\L	5	16cc#\	16aa\	.	8D\	pro	8f#\	pro	8a\	pro	8cc#\	pro	.	.
.	.	16cc#\JJ	16aa\JJ	.	.	.	.	.	.	.	.	.	.	.
*	*	*	*Xtremolo	*	*	*	*	*	*	*	*	*	*	*
8E\	4	16b\LL	16aa\LL	.	4E\	no-	4e\	no-	8a\L	no-	4b\	no-	4ee\	4gg#X\
.	.	16b\	16aa\	.	.	.	.	.	.	.	.	.	.	.
!	!	!	!	!	!	!	!	!	!LO:SIC:s=8g#:v	!	!	!	!	!
8EE/J	#	16b\	16gg#X\	.	.	.	.	.	8g\J	.	.	.	.	.
.	.	16b\JJ	16gg#\JJ	.	.	.	.	.	.	.	.	.	.	.
!	!	!	!LO:LB:g=original	!	!	!	!LO:SIC:s=4e:v	!	!	!	!	!	!	!
4AA/	.	4cc#\	4aa\	.	4AA/	-bis	4f#\	-bis	4a\	-bis	4cc#\	-bis	4a/	4aa\
4r	.	4r	4r	.	4r	.	4r	.	4r	.	4r	.	4r	4r
=17	=17	=17	=17	=17	=17	=17	=17	=17	=17	=17	=17	=17	=17	=17
!	!	!LO:LB:g=original	!	!	!	!	!	!	!LO:LB:g=original	!	!LO:LB:g=original	!	!	!
!LO:TX:a:t=P:problem:mixed beam	!	!	!	!	!	!	!	!	!	!	!	!	!	!
*	*	*	*tremolo	*	*	*	*	*	*	*	*	*	*	*
8d\L	.	16ff#\LL	16aa\LL	1ryy	8d\	Vir-	8d\	Vir-	8a\	Vir-	8ff#\	Vir-	4f#/	4dd\
.	.	16ff#\	16aa\	.	.	.	.	.	.	.	.	.	.	.
8D/J	.	16ff#\	16aa\	.	8D\	-go	8d\	-go	8a\	-go	8ff#\	-go	.	.
.	.	16ff#\	16aa\	.	.	.	.	.	.	.	.	.	.	.
*	*	*	*	*	*	*	*	*ij	*	*ij	*	*ij	*	*
16D\LL	.	16ff#\	16aa\	.	16D\LL	Vir-	8d\	Vir-	8a\	Vir-	8ff#\	Vir-	8r	8r
16E\	.	16ff#\	16aa\	.	16E\JJ	.	.	.	.	.	.	.	.	.
16F#\	6	16ff#\	16aa\	.	16F#\LL	-go	8d\	-go	8a\	-go	8ff#\	-go	8d/	8dd\
*	*	*	*	*	*	*	*	*Xij	*	*Xij	*	*Xij	*	*
16D\JJ	.	16ff#\JJ	16aa\JJ	.	16D\JJ	.	.	.	.	.	.	.	.	.
!LO:TX:a:t=P:problem:mixed beam	!	!	!	!	!	!	!	!	!	!	!	!	!	!
8A\L	.	16ee\LL	16aa\LL	.	4A\	Po-	4c#\	po-	4a\	Po-	4ee\	Po-	8a/L	8ee\L
.	.	16ee\	16aa\	.	.	.	.	.	.	.	.	.	.	.
8AA/J	.	16ee\	16aa\	.	.	.	.	.	.	.	.	.	16a/L	16ee\L
.	.	16ee\	16aa\	.	.	.	.	.	.	.	.	.	16a/JJ	16ee\JJ
16A\LL	.	16ee\	16aa\	.	4AA/	-tens	4c#\	-tens	4a\	-tens	4ee\	-tens	4a/	4ee\
16B\	.	16ee\	16aa\	.	.	.	.	.	.	.	.	.	.	.
16c#\	6	16ee\	16aa\	.	.	.	.	.	.	.	.	.	.	.
16A\JJ	.	16ee\JJ	16aa\JJ	.	.	.	.	.	.	.	.	.	.	.
*	*	*	*Xtremolo	*	*	*	*	*	*	*	*	*	*	*
=18	=18	=18	=18	=18	=18	=18	=18	=18	=18	=18	=18	=18	=18	=18
!	!	!	!	!	!LO:LB:g=original	!	!	!	!	!	!	!	!	!
!	!	!LO:TX:a:t=P:problem:mixed beam	!	!	!	!	!	!	!	!	!	!	!	!
8d\L	.	8ff#\L	16aa\LL	1ryy	8D\	Vir-	8d\	Vir-	8a\	Vir-	8ff#\	Vir-	8dd\L	8ff#\L
.	.	.	16ff#\	.	.	.	.	.	.	.	.	.	.	.
8B\	.	8a/	16ee\	.	8B\	-go	8d\	-go	8g\	-go	8dd\	-go	8ff#\	8aa\
.	.	.	16dd\JJ	.	.	.	.	.	.	.	.	.	.	.
*	*	*	*	*	*	*	*	*ij	*	*ij	*	*ij	*	*
8G\	6 5	8g/	16ff#\LL	.	8G\	Vir-	8c#\	Vir-	8g\	Vir-	8ee\	Vir-	8ee\	8gg\
.	.	.	16ee\	.	.	.	.	.	.	.	.	.	.	.
8A\J	.	8e/J	16dd\	.	8A\	-go	8A\	-go	8e\	-go	8cc#\	-go	8a\J	8ee\J
*	*	*	*	*	*	*	*	*Xij	*	*Xij	*	*Xij	*	*
.	.	.	16cc#\JJ	.	.	.	.	.	.	.	.	.	.	.
4D\	.	4f#/	4dd\	.	8D\	Cle-	8A\	Cle-	8f#\	Cle-	8dd\	Cle-	4dd\	4ff#\
.	.	.	.	.	8D\	-mens	8A\	-mens	8f#\	-mens	8dd\	-mens	.	.
4r	.	16dd\LL	16ff#\LL	.	4r	.	4r	.	4r	.	4r	.	4r	4r
.	.	16cc#\	16ee\	.	.	.	.	.	.	.	.	.	.	.
.	.	16dd\	16ff#\	.	.	.	.	.	.	.	.	.	.	.
.	.	16ee\JJ	16gg\JJ	.	.	.	.	.	.	.	.	.	.	.
=19	=19	=19	=19	=19	=19	=19	=19	=19	=19	=19	=19	=19	=19	=19
!	!	!LO:TX:a:t=P:problem:mixed beam	!	!	!	!	!	!	!	!	!	!	!	!
8D\L	.	16ff#\LL	8.aa\L	1ryy	4D\	Vir-	4d\	Vir-	4ccn\	Vir-	4aa\	Vir-	4d/	4dd\
.	.	16a 16d/	.	.	.	.	.	.	.	.	.	.	.	.
8F#\	6 n5	16a 16d/	.	.	.	.	.	.	.	.	.	.	.	.
.	.	16aJJ 16d/	16gg\Jk	.	.	.	.	.	.	.	.	.	.	.
8F#\	.	16aLL 16d/	16ff#\LL	.	8F#\	-go	8d\	-go	8a\	-go	8ccn\	-go	4r	4r
.	.	16a 16d/	16ee\	.	.	.	.	.	.	.	.	.	.	.
8F#\J	.	16a 16d/	16dd\	.	8F#\	fi-	8d\	Fi-	8a\	Fi-	8cc\	fi-	.	.
.	.	16aJJ 16d/	16ccn\JJ	.	.	.	.	.	.	.	.	.	.	.
*tremolo	*	*	*	*	*	*	*	*	*	*	*	*	*	*
8G\L	.	16bLL 16d/	16b\LL	.	4G\	-de-	4d\	-de-	4g\	-de-	4b\	-de-	8d/L	8dd\L
.	.	16b 16d/	16dd\	.	.	.	.	.	.	.	.	.	.	.
8G\	.	16b 16d/	16dd\	.	.	.	.	.	.	.	.	.	16d/L	16dd\L
.	.	16b 16d/	16gg\JJ	.	.	.	.	.	.	.	.	.	16d/JJ	16dd\JJ
8G\	.	16b 16d/	16gg\LL	.	8G\	-lis	8d\	-lis	8g\	-lis	8b\	-lis	8d/L	8dd\L
.	.	16b 16d/	16bb\	.	.	.	.	.	.	.	.	.	.	.
8G\J	.	16b 16d/	16bb\	.	8G\	o-	8d\	o-	8g\	o-	8b\	o-	8d/J	8dd\J
.	.	16bJJ 16d/	16dd\JJ	.	.	.	.	.	.	.	.	.	.	.
=20	=20	=20	=20	=20	=20	=20	=20	=20	=20	=20	=20	=20	=20	=20
!	!	!	!	!	!	!	!LO:LB:g=original	!	!	!	!	!	!LO:LB:g=original	!
8F#\L	6 n5	16aLL 16d/	8ccn\L	1ryy	4F#\	-ra	4d\	-ra	4a\	-ra	4ccn\	-ra	4d/	4dd\
.	.	16a 16d/	.	.	.	.	.	.	.	.	.	.	.	.
8F#\	.	16a 16d/	16aa\L	.	.	.	.	.	.	.	.	.	.	.
.	.	16a 16d/	16gg\JJ	.	.	.	.	.	.	.	.	.	.	.
*	*	*	*	*	*	*	*	*ij	*	*ij	*	*ij	*	*
8F#\	.	16a 16d/	16ff#\LL	.	4D\	pro	4d\	o-	4a\	o-	4cc\	o-	4r	4r
.	.	16a 16d/	16ee\	.	.	.	.	.	.	.	.	.	.	.
8F#\J	.	16a 16d/	16dd\	.	.	.	.	.	.	.	.	.	.	.
*Xtremolo	*	*	*	*	*	*	*	*	*	*	*	*	*	*
.	.	16a 16d/JJ	16cc\JJ	.	.	.	.	.	.	.	.	.	.	.
16G\LL	.	16g\LL	16b\LL	.	16G\LL	no-	4e\	-ra	4g\	-ra	4b\	-ra	4d/	4dd\
*	*	*	*	*	*	*	*	*Xij	*	*Xij	*	*Xij	*	*
16A\	.	16b\	16gg\	.	16A\	.	.	.	.	.	.	.	.	.
16B\	.	16b\	16gg\	.	16B\	.	.	.	.	.	.	.	.	.
16A\JJ	.	16b\JJ	16gg\JJ	.	16A\JJ	.	.	.	.	.	.	.	.	.
*	*	*	*tremolo	*	*	*	*	*	*	*	*	*	*	*
16G\LL	.	16b\LL	16gg\LL	.	16G\LL	.	4e\	pro	4g\	pro	4b\	pro	4r	4r
16F#\	.	16b\	16gg\	.	16F#\	.	.	.	.	.	.	.	.	.
16E\	.	16b\	16gg\	.	16E\	.	.	.	.	.	.	.	.	.
16D\JJ	.	16b\JJ	16gg\JJ	.	16D\JJ	.	.	.	.	.	.	.	.	.
=21	=21	=21	=21	=21	=21	=21	=21	=21	=21	=21	=21	=21	=21	=21
!	!	!	!	!	!	!	!	!	!	!	!LO:LB:g=original	!	!	!
!	!	!	!	!	!LO:SIC:s=16Cn:v	!	!	!	!	!	!	!	!	!
16Cn/LL	.	16a/LL	16gg\LL	1ryy	16C#/LL	.	2e\	no-	4g\	no-	2a\	no-	8d/L	8dd\L
16AA/	.	16a/	16gg\	.	16AA/	.	.	.	.	.	.	.	.	.
16BB/	.	16a/	16gg\	.	16BB/	.	.	.	.	.	.	.	16d/L	16dd\L
!	!	!	!	!	!LO:SIC:s=16Cn:v	!	!	!	!	!	!	!	!	!
16C/JJ	.	16a/	16gg\JJ	.	16C#/JJ	.	.	.	.	.	.	.	16d/JJ	16dd\JJ
8D/L	4	16a/	16ff#\LL	.	4D/	.	.	.	4f#\	.	.	.	8d/L	8dd\L
.	.	16a/	16ff#\	.	.	.	.	.	.	.	.	.	.	.
8DD/J	3	16a/	16ff#\	.	.	.	.	.	.	.	.	.	8d/J	8dd\J
.	.	16a/JJ	16ff#\JJ	.	.	.	.	.	.	.	.	.	.	.
!LO:LB:g=original	!	!	!	!	!	!	!	!	!	!	!	!	!	!
4GG/	.	4b/	4gg\	.	4GG/	-bis	4d\	-bis	4g\	-bis	4b\	-bis	4d/	4dd\
!	!	!	!	!	!	!	!	!	!	!	!	!	!LO:TX:a:t=P:problem:partia dopisana na końcu strony	!
4r	.	4r	8r	.	4r	.	4r	.	4r	.	4r	.	4r	4r
.	.	.	(32g/LLL	.	.	.	.	.	.	.	.	.	.	.
.	.	.	32a/	.	.	.	.	.	.	.	.	.	.	.
.	.	.	32b/	.	.	.	.	.	.	.	.	.	.	.
.	.	.	32ccn/JJJ)	.	.	.	.	.	.	.	.	.	.	.
=22	=22	=22	=22	=22	=22	=22	=22	=22	=22	=22	=22	=22	=22	=22
!	!	!	!LO:LB:g=original	!	!LO:LB:g=original	!	!	!	!LO:LB:g=original	!	!	!	!LO:LB:g=original	!
!	!	!	!	!	!LO:TX:a:t=2	!	!LO:TX:a:t=2	!	!	!	!	!	!	!
0r	.	16G/LL	4.dd\	1ryy	0r	.	0r	.	0r	.	0r	.	0r	0r
.	.	16d/	.	.	.	.	.	.	.	.	.	.	.	.
.	.	16B/	.	.	.	.	.	.	.	.	.	.	.	.
.	.	16d/JJ	.	.	.	.	.	.	.	.	.	.	.	.
.	.	16G/LL	.	.	.	.	.	.	.	.	.	.	.	.
!	!	!LO:SIC:s=16d:v	!	!	!	!	!	!	!	!	!	!	!	!
.	.	16B/	.	.	.	.	.	.	.	.	.	.	.	.
.	.	16B/	(32ccn\LLL	.	.	.	.	.	.	.	.	.	.	.
.	.	.	32b\	.	.	.	.	.	.	.	.	.	.	.
.	.	16d/JJ	32a\	.	.	.	.	.	.	.	.	.	.	.
.	.	.	32g\JJJ)	.	.	.	.	.	.	.	.	.	.	.
.	.	16A/LL	8f#/L	.	.	.	.	.	.	.	.	.	.	.
.	.	16d/	.	.	.	.	.	.	.	.	.	.	.	.
.	.	16c#X/	8f#/	.	.	.	.	.	.	.	.	.	.	.
.	.	16d/JJ	.	.	.	.	.	.	.	.	.	.	.	.
.	.	16A/LL	8f#/	.	.	.	.	.	.	.	.	.	.	.
.	.	16d/	.	.	.	.	.	.	.	.	.	.	.	.
.	.	16cn/	8f#/J	.	.	.	.	.	.	.	.	.	.	.
.	.	16d/JJ	.	.	.	.	.	.	.	.	.	.	.	.
=23	=23	=23	=23	=23	=23	=23	=23	=23	=23	=23	=23	=23	=23	=23
!	!	!LO:LB:g=original	!	!	!	!	!	!	!	!	!	!	!	!
.	.	16G/LL	8g/	1ryy	.	.	.	.	.	.	.	.	.	.
.	.	16d/	.	.	.	.	.	.	.	.	.	.	.	.
.	.	16B/	4dd\	.	.	.	.	.	.	.	.	.	.	.
.	.	16d/JJ	.	.	.	.	.	.	.	.	.	.	.	.
.	.	16G/LL	.	.	.	.	.	.	.	.	.	.	.	.
.	.	16d/	.	.	.	.	.	.	.	.	.	.	.	.
.	.	16B/	(32ccn\LLL	.	.	.	.	.	.	.	.	.	.	.
.	.	.	32b\	.	.	.	.	.	.	.	.	.	.	.
.	.	16d/JJ	32a\	.	.	.	.	.	.	.	.	.	.	.
.	.	.	32g\JJJ)	.	.	.	.	.	.	.	.	.	.	.
.	.	16A/LL	8ccn\L	.	.	.	.	.	.	.	.	.	.	.
.	.	16d/	.	.	.	.	.	.	.	.	.	.	.	.
.	.	16f#/	8ccn\	.	.	.	.	.	.	.	.	.	.	.
.	.	16d/JJ	.	.	.	.	.	.	.	.	.	.	.	.
.	.	16A/LL	8ccn\	.	.	.	.	.	.	.	.	.	.	.
.	.	16d/	.	.	.	.	.	.	.	.	.	.	.	.
.	.	16f#/	8ccn\J	.	.	.	.	.	.	.	.	.	.	.
.	.	16d/JJ	.	.	.	.	.	.	.	.	.	.	.	.
=24	=24	=24	=24	=24	=24	=24	=24	=24	=24	=24	=24	=24	=24	=24
16G\LL	.	8B/	4.dd\	1ryy	8r	.	8r	.	8r	.	8r	.	4d/	4dd\
16d\	.	.	.	.	.	.	.	.	.	.	.	.	.	.
16B\	.	4d/	.	.	8G\	o-	8d\	O-	8g\	O-	8b\	O-	.	.
16d\JJ	.	.	.	.	.	.	.	.	.	.	.	.	.	.
16G\LL	.	.	.	.	8G\	-ra	8d\	-ra	8g\	-ra	8b\	-ra	4r	4r
16d\	.	.	.	.	.	.	.	.	.	.	.	.	.	.
16B\	.	32cn/LLL	(32ccn\LLL	.	8G\	pro	8d\	pro	8g\	pro	8b\	pro	.	.
.	.	32B/	32b\	.	.	.	.	.	.	.	.	.	.	.
16d\JJ	.	32A/	32a\	.	.	.	.	.	.	.	.	.	.	.
.	.	32G/JJJ	32g\JJJ)	.	.	.	.	.	.	.	.	.	.	.
16A\LL	6	8cn/L	8f#/L	.	2F#\	no-	2d\	no-	2a\	no-	2ccn\	no-	4d/	4dd\
16d\	.	.	.	.	.	.	.	.	.	.	.	.	.	.
16cn\	.	8cn/	8f#/	.	.	.	.	.	.	.	.	.	.	.
16d\JJ	.	.	.	.	.	.	.	.	.	.	.	.	.	.
16A\LL	.	8cn/	8f#/	.	.	.	.	.	.	.	.	.	4r	4r
16d\	.	.	.	.	.	.	.	.	.	.	.	.	.	.
16cn\	.	8cn/J	8f#/J	.	.	.	.	.	.	.	.	.	.	.
16d\JJ	.	.	.	.	.	.	.	.	.	.	.	.	.	.
=25	=25	=25	=25	=25	=25	=25	=25	=25	=25	=25	=25	=25	=25	=25
16G\LL	.	8B/	8g/	1ryy	4G\	-bis	4d\	-bis	4g\	-bis	4b\	-bis	4d/	4dd\
16d\	.	.	.	.	.	.	.	.	.	.	.	.	.	.
16B\	.	4d/	4dd\	.	.	.	.	.	.	.	.	.	.	.
16d\JJ	.	.	.	.	.	.	.	.	.	.	.	.	.	.
16G\LL	.	.	.	.	8G\	ſpe-	8d\	ſpe-	8g\	ſpe-	8b\	ſpe-	4r	4r
16d\	.	.	.	.	.	.	.	.	.	.	.	.	.	.
!	!	!LO:SIC:s=32cn:v	!	!	!	!	!	!	!	!	!	!	!	!
16B\	.	32c#/LLL	(32ccn\LLL	.	8G\	-cu-	8d\	-cu-	8g\	-cu-	8b\	-cu-	.	.
.	.	32B/	32b\	.	.	.	.	.	.	.	.	.	.	.
16d\JJ	.	32A/	32a\	.	.	.	.	.	.	.	.	.	.	.
.	.	32G/JJJ	32g\JJJ)	.	.	.	.	.	.	.	.	.	.	.
!	!	!LO:SIC:s=2cn:v:cztery ósemki	!	!	!	!	!	!	!	!	!	!	!	!
16F#\LL	6_ n5_	8c#/L	8ccn\L	.	4F#\	-l(um)	4d\	-lum	4a\	-l(um)	4ccn\	-lum	4d/	4dd\
16d\	.	.	.	.	.	.	.	.	.	.	.	.	.	.
16A\	.	8c#/	8ccn\	.	.	.	.	.	.	.	.	.	.	.
16d\JJ	.	.	.	.	.	.	.	.	.	.	.	.	.	.
16F#\LL	.	8c#/	8ccn\	.	4F#\	Ju-	4d\	jus-	4a\	jus-	4cc\	jus-	4r	4r
16d\	X X	.	.	.	.	.	.	.	.	.	.	.	.	.
16A\	.	8c#/J	8ccn\J	.	.	.	.	.	.	.	.	.	.	.
16d\JJ	.	.	.	.	.	.	.	.	.	.	.	.	.	.
*	*	*	*Xtremolo	*	*	*	*	*	*	*	*	*	*	*
=26	=26	=26	=26	=26	=26	=26	=26	=26	=26	=26	=26	=26	=26	=26
!	!	!	!	!	!	!	!	!	!	!	!	!	!	!LO:LB:g=original
4G\	.	4B/	4b\	1ryy	8.G\	-ſti-	8.d\	-ti-	8.g\	-ti-	8.b\	-ti-	4d/	4dd\
.	.	.	.	.	16G\	-ti-	16d\	-ti-	16g\	-ti-	16b\	-ti-	.	.
!	!	!	!	!	!	!	!	!	!LO:TX:a:t=P:problem:rozdzielacz słów na 1 linii:global	!	!	!	!	!
4r	.	4r	4r	.	8G\	-ae	8d\	-ae	8g,\	-ae	8b\	-ae	4r	4r
.	.	.	.	.	8G\	o-	8d\	o-	8g\	O-	8b\	o-	.	.
!	!	!	!	!	!	!	!LO:LB:g=original	!	!	!	!	!	!	!
8G\L	.	4.b\	4.gg\	.	4G\	-ra	4d\	-ra	4.g\	-ra	4.b\	-ra	2r	2r
8G\J	.	.	.	.	.	.	.	.	.	.	.	.	.	.
4r	.	.	.	.	4r	.	4r	.	.	.	.	.	.	.
!	!	!LO:SIC:s=16ccn:v	!	!	!	!	!	!	!	!	!LO:SIC:s=16ccn:v	!	!	!
.	.	24cc#\LL	24aa\LL	.	.	.	.	.	24a\LL	o-	24cc#\LL	pro	.	.
.	.	24b\	24gg\	.	.	.	.	.	24g\	.	24b\	.	.	.
!	!	!LO:SIC:s=16ccn:v	!	!	!	!	!	!	!	!	!LO:SIC:s=16ccn:v	!	!	!
.	.	24cc#\JJ	24aa\JJ	.	.	.	.	.	24a\JJ	.	24cc#\JJ	.	.	.
=27	=27	=27	=27	=27	=27	=27	=27	=27	=27	=27	=27	=27	=27	=27
!	!	!	!	!	!	!	!	!	!	!	!LO:LB:g=original	!	!	!
*	*	*	*	*	*	*ij	*	*ij	*	*	*	*	*	*
8E\L	5	4.b\	4.gg\	1ryy	8E\	o-	8e\	o-	4.g\	-ra	4.b\	no-	2r	2r
8E\J	.	.	.	.	8E\	-ra	8e\	-ra	.	.	.	.	.	.
*	*	*	*	*	*	*Xij	*	*Xij	*	*	*	*	*	*
4r	.	.	.	.	4r	.	4r	.	.	.	.	.	.	.
!	!	!LO:SIC:s=16ccn:v	!	!	!	!	!	!	!	!	!LO:SIC:s=16ccn:v	!	!	!
.	.	24cc#\LL	24aa\LL	.	.	.	.	.	24a\LL	pro	24cc#\LL	.	.	.
.	.	24b\	24gg\	.	.	.	.	.	24g\	.	24b\	.	.	.
!	!	!LO:SIC:s=16ccn:v	!	!	!	!	!	!	!	!	!LO:SIC:s=16ccn:v	!	!	!
.	.	24cc#\JJ	24aa\JJ	.	.	.	.	.	24a\JJ	.	24cc#\JJ	.	.	.
!LO:LB:g=original	!	!	!	!	!	!	!	!	!	!	!	!	!	!
*	*	*	*tremolo	*	*	*	*	*	*	*	*	*	*	*
8r	.	16a/LL	16gg\LL	.	8r	.	8r	.	(4g\	no-	4b\	.	8dd\L	8dd\L
.	.	16a/	16gg\	.	.	.	.	.	.	.	.	.	.	.
!LO:TX:a:t=P:problem:mixed beam	!	!	!	!	!	!	!	!	!	!	!	!	!	!
8E\L	5	16a/	16gg\	.	8E\	pro	8e\	pro	.	.	.	.	16dd\L	16dd\L
.	.	16a/	16gg\JJ	.	.	.	.	.	.	.	.	.	16dd\JJ	16dd\JJ
8D\	4	16a/	16ff#\LL	.	4D\	no-	4d\	no-	4f#\)	.	4a\	.	8dd\L	8dd\L
.	.	16a/	16ff#\	.	.	.	.	.	.	.	.	.	.	.
8DD/J	3	16a/	16ff#\	.	.	.	.	.	.	.	.	.	8dd\J	8dd\J
.	.	16a/JJ	16ff#\JJ	.	.	.	.	.	.	.	.	.	.	.
*	*	*Xtremolo	*Xtremolo	*	*	*	*	*	*	*	*	*	*	*
=28	=28	=28	=28	=28	=28	=28	=28	=28	=28	=28	=28	=28	=28	=28
!	!	!LO:LB:g=original	!	!	!	!	!	!	!	!	!	!	!	!
4GG/	.	8b/	8gg\L	1ryy	8GG/	-bis	8d\	-bis	8g\	-bis	8b\	-bis	4dd\	4dd\
.	.	8r	8b\	.	8r	.	8r	.	8r	.	8b\L	ſe-	.	.
8r	.	8r	8ee\	.	8r	.	8r	.	8r	.	8ee\J	.	4r	4r
!	!	!	!	!	!LO:LB:g=original	!	!	!	!	!	!	!	!	!
8G#X\	6 5	8b/	8dd\J	.	8G#X\	o-	8e\	o-	8b\	ſe-	8dd\	-des	.	.
4.A\	5 3	4.e/	4.cc#X\	.	4.A\	-ra	4A\	-ra	4e\	-des	4.cc#X\	ſa-	2r	2r
!	!	!	!	!	!	!	!	!	!LO:LB:g=original	!	!	!	!	!
.	.	.	.	.	.	.	8r	.	16e\LL	ſa-	.	.	.	.
.	.	.	.	.	.	.	.	.	16f#\JJ	.	.	.	.	.
8G#X\	7 5	24f#/LL	24dd\LL	.	8G#X\	pro	8A\	pro	16e\LL	-pi-	24dd\LL	-pi-	.	.
.	.	24e/	24cc#\	.	.	.	.	.	.	.	24cc#\	.	.	.
.	.	.	.	.	.	.	.	.	16f#\JJ	.	.	.	.	.
.	.	24f#/JJ	24dd\JJ	.	.	.	.	.	.	.	24dd\JJ	.	.	.
=29	=29	=29	=29	=29	=29	=29	=29	=29	=29	=29	=29	=29	=29	=29
!	!	!	!LO:LB:g=original	!	!	!	!	!	!	!	!	!	!	!
4.A\	5 3	4.e/	4.cc#\	1ryy	4.A\	no-	(4.A\	no-	(4.e\	-en-	4.cc#\	-en-	4a/	4ee\
.	.	.	.	.	.	.	.	.	.	.	.	.	4a/	4ee\
!LO:SIC:s=8G#:v	!	!	!	!	!LO:SIC:s=8G#:v	!	!	!	!	!	!	!	!	!
8G\	7 5	24f#/LL	24dd\LL	.	8G\	.	8B\)	.	24f#\)	-ti-	24dd\LL	.	.	.
.	.	24e/	24cc#\	.	.	.	.	.	24e\LL	.	24cc#\	-ti-	.	.
.	.	24f#/JJ	24dd\JJ	.	.	.	.	.	24f#\JJ	.	24dd\JJ	.	.	.
8A\L	.	4e/	4cc#\	.	4A\	-bis	4A\	-bis	4e\	-ae	4cc#\	-ae	4a/	4ee\
8Gn\	.	.	.	.	.	.	.	.	.	.	.	.	.	.
8F#\	6	4r	4r	.	4r	.	4r	.	4r	.	4r	.	4r	4r
8E\J	.	.	.	.	.	.	.	.	.	.	.	.	.	.
=30	=30	=30	=30	=30	=30	=30	=30	=30	=30	=30	=30	=30	=30	=30
!LO:TX:a:t=P:problem:mixed beam	!	!	!	!	!LO:TX:a:t=P:problem:mixed beam	!	!	!	!	!	!	!	!	!LO:TX:a:t=+
16G\LL	.	4.b\	4.b\	1ryy	16G\LL	Cau-	4d\	Cau-	4g\	Cau-	4b\	Cau-	0r	0r
16GG/	.	.	.	.	16GG/JJ	.	.	.	.	.	.	.	.	.
16G\	.	.	.	.	16G\LL	-sa	.	.	.	.	.	.	.	.
16F#\JJ	.	.	.	.	16F#\JJ	.	.	.	.	.	.	.	.	.
16E\LL	3	.	.	.	16E/LL	nos-	4d\	-ſa	4b\	-ſa	4gg\	-ſa	.	.
16D\	.	.	.	.	16D/	.	.	.	.	.	.	.	.	.
16C#\	.	8b\	8gg\	.	16C#/	.	.	.	.	.	.	.	.	.
16BB\JJ	.	.	.	.	16BB/JJ	.	.	.	.	.	.	.	.	.
!LO:TX:a:t=P:problem:mixed beam	!	!	!	!	!LO:SIC:l:s=-trae:v	!	!	!	!	!	!	!	!	!
16AA/LL	8	4.f#/	4.a\	.	8AA/	-tre	4c#\	noſ-	4a\	nos-	4gg\	noſ-	.	.
16G\	.	.	.	.	.	.	.	.	.	.	.	.	.	.
!	!	!	!	!	!LO:SIC:l:s=lae-:v	!	!	!	!	!	!	!	!	!
16F#\	.	.	.	.	16F#\LL	le-	.	.	.	.	.	.	.	.
16E\JJ	.	.	.	.	16E\JJ	.	.	.	.	.	.	.	.	.
16D/LL	3	.	.	.	16D/LL	-ti-	8c#\	-trae	8a\	-trae	8ff#\	-trae	.	.
16C#/	.	.	.	.	16C#/JJ	.	.	.	.	.	.	.	.	.
16BB/	.	8a/	8ff#\	.	16BB/LL	-ti-	8c#\	lae-	8a\	lae-	8ff#\	lae-	.	.
16AA/JJ	.	.	.	.	16AA/JJ	.	.	.	.	.	.	.	.	.
=31	=31	=31	=31	=31	=31	=31	=31	=31	=31	=31	=31	=31	=31	=31
!	!	!	!	!	!	!	!LO:LB:g=original	!	!	!	!	!	!	!
!LO:TX:a:t=P:problem:mixed beam	!	!	!	!	!	!	!	!	!	!	!	!	!	!
16GG/LL	8	4.e/	4.g/	1ryy	8GG/	-ae	4B\	-ti-	4g\	-ti-	4ff#\	-ti-	.	.
16E\	.	.	.	.	.	.	.	.	.	.	.	.	.	.
16E\	.	.	.	.	16e\LL	o-	.	.	.	.	.	.	.	.
16D\JJ	.	.	.	.	16d\	.	.	.	.	.	.	.	.	.
16C#/LL	3	.	.	.	16c#\	.	4c#\	-ti-	4g\	-ti-	4ee\	-ti-	.	.
16BB/	.	.	.	.	16B\JJ	.	.	.	.	.	.	.	.	.
16AA/	.	8g/	8ee\	.	16A\LL	.	.	.	.	.	.	.	.	.
16GG/JJ	.	.	.	.	16G\JJ	.	.	.	.	.	.	.	.	.
!	!	!	!	!	!	!	!	!	!	!	!LO:SIC:s=16ccn:v	!	!	!
8FF#/L	6	4f#/	4dd\	.	8F#\	-ra	8A\	-ae	8f#\	-ae	8dd\	-ae	.	.
8DD/J	.	.	.	.	8D\	o-	8A\	o-	8f#\	o-	8dd\	o-	.	.
4r	.	4r	4r	.	8D\	-ra	8A\	-ra	8f#\	-ra	8dd\	-ra	.	.
.	.	.	.	.	8D\	pro	8A\	pro	8f#\	pro	8dd\	pro	.	.
=32	=32	=32	=32	=32	=32	=32	=32	=32	=32	=32	=32	=32	=32	=32
!LO:LB:g=original	!	!	!	!	!LO:LB:g=original	!	!	!	!	!	!	!	!	!
*tremolo	*	*tremolo	*	*	*	*	*	*	*	*	*	*	*	*
8C#/L	6 5	16eLL 16A/	16g/LL	1ryy	2C#/	no-	2A\	no-	2g\	no-	2ee\	no-	8a/L	8ee\L
.	.	16e 16A/	16ee/	.	.	.	.	.	.	.	.	.	.	.
8C#/	.	16e 16A/	16ee/	.	.	.	.	.	.	.	.	.	16a/L	16ee\L
.	.	16e 16A/	16dd/JJ	.	.	.	.	.	.	.	.	.	16a/JJ	16ee\JJ
8C#/	.	16e 16A/	16cc#\LL	.	.	.	.	.	.	.	.	.	8a/L	8ee\L
.	.	16e 16A/	16b\	.	.	.	.	.	.	.	.	.	.	.
8C#/J	.	16e 16A/	16a\	.	.	.	.	.	.	.	.	.	8a/J	8ee\J
.	.	16eJJ 16A/	16g\JJ	.	.	.	.	.	.	.	.	.	.	.
8D/L	.	16f#LL 16A/	16f#/LL	.	4D/	-bis	8A\	-bis	4f#\	-bis	4dd\	-bis	4dd\	4ff#\
.	.	16f# 16A/	16a/	.	.	.	.	.	.	.	.	.	.	.
*	*	*	*	*	*	*	*	*ij	*	*	*	*	*	*
!	!	!	!	!	!	!	!LO:TX:a:t=P:problem:w źrodle powtórzenie,ale nie da się podłożyć poprzednich słów, więc zapisano zgodnie z innymi głosami wokalnymi	!	!	!	!	!	!	!
8D/	.	16f# 16A/	16a/	.	.	.	4A\	Vas	.	.	.	.	.	.
.	.	16f# 16A/	16dd/JJ	.	.	.	.	.	.	.	.	.	.	.
!	!	!	!	!	!	!	!	!	!	!	!	!	!LO:TX:a:t=vi-	!
8D/	.	16f# 16A/	16dd\LL	.	8D/	Vas	.	.	8f#\	Vas	8dd\	Vas	4r	4r
.	.	16f# 16A/	16ff#\	.	.	.	.	.	.	.	.	.	.	.
8D/J	.	16f# 16A/	16ff#\	.	8D/	ſpi-	8A\	ſpi-	8f#\	ſpi-	8dd\	ſpi-	.	.
*Xtremolo	*	*	*	*	*	*	*	*	*	*	*	*	*	*
.	.	16f#JJ 16A/	16dd\JJ	.	.	.	.	.	.	.	.	.	.	.
=33	=33	=33	=33	=33	=33	=33	=33	=33	=33	=33	=33	=33	=33	=33
!	!	!	!	!	!	!	!	!	!LO:LB:g=original	!	!	!	!	!
!LO:TX:a:t=P:problem:mixed beam	!	!	!	!	!	!	!	!	!	!	!	!	!LO:TX:b:t=-de	!
8C#/L	.	16eLL 16A/	16g/LL	1ryy	4C#/	-ri-	4A\	-ri-	4g\	-ri-	4ee\	-ri-	8a/L	8ee\L
.	.	16e 16A/	16ee/	.	.	.	.	.	.	.	.	.	.	.
8c#\	.	16e 16A/	16ee/	.	.	.	.	.	.	.	.	.	16a/L	16ee\L
.	.	16e 16A/	16dd/JJ	.	.	.	.	.	.	.	.	.	16a/JJ	16ee\JJ
8c#\	.	16e 16A/	16cc#\LL	.	4C#/	-tu-	4A\	-tu-	4g\	-tu-	4ee\	-tu-	8a/L	8ee\L
.	.	16e 16A/	16b\	.	.	.	.	.	.	.	.	.	.	.
8c#\J	.	16e 16A/	16a\	.	.	.	.	.	.	.	.	.	8a/J	8ee\J
.	.	16eJJ 16A/	16g\JJ	.	.	.	.	.	.	.	.	.	.	.
!LO:TX:a:t=P:problem:mixed beam	!	!LO:TX:a:t=P:problem:mixed beam	!LO:TX:a:t=P:problem:mixed beam	!	!	!	!	!	!	!	!	!	!	!
16d\LL	.	16f#/LL	16f#/LL	.	8D/	-a-	4A\	-a-	4f#\	-a-	4dd\	-a-	4dd\	4ff#\
16D/	.	16ff#\	16ddd\	.	.	.	.	.	.	.	.	.	.	.
16d\	.	16ff#\	16ddd\	.	8D/	-le	.	.	.	.	.	.	.	.
16e\JJ	.	16ff#\JJ	16ddd\JJ	.	.	.	.	.	.	.	.	.	.	.
*	*	*	*tremolo	*	*	*	*	*	*	*	*	*	*	*
16f#\LL	.	16ff#\LL	16ddd\LL	.	16f#\LL	O-	8A\	-le	8f#\	-le	8dd\	-le	4r	4r
*	*	*	*	*	*	*	*	*Xij	*	*	*	*	*	*
16e\	.	16ff#\	16ddd\	.	16e\	.	.	.	.	.	.	.	.	.
16d\	.	16ff#\	16ddd\	.	16d\	.	8A\	o-	8f#\	o-	8dd\	o-	.	.
16c#\JJ	.	16ff#\JJ	16ddd\JJ	.	16c#\JJ	.	.	.	.	.	.	.	.	.
=34	=34	=34	=34	=34	=34	=34	=34	=34	=34	=34	=34	=34	=34	=34
!LO:TX:a:t=P:problem:mixed beam	!	!	!	!	!	!	!	!	!	!	!	!	!	!
16B\LL	.	16ff#\LL	16ddd\LL	1ryy	8B\L	.	4B\	-ra	4f#\	-ra	4dd\	-ra	4dd\	4ff#\
16BB/	.	16ff#\	16ddd\	.	.	.	.	.	.	.	.	.	.	.
16B\	.	16ff#\	16ddd\	.	16B\L	.	.	.	.	.	.	.	.	.
16c#\JJ	.	16ff#\	16ddd\	.	16c#\JJ	.	.	.	.	.	.	.	.	.
16d\LL	.	16ff#\	16ddd\	.	16d\LL	.	4B\	pro	4f#\	pro	4dd\	pro	4r	4r
16c#\	.	16ff#\	16ddd\	.	16c#\	.	.	.	.	.	.	.	.	.
16B\	.	16ff#\	16ddd\	.	16B\	.	.	.	.	.	.	.	.	.
16A\JJ	.	16ff#\JJ	16ddd\JJ	.	16A\JJ	.	.	.	.	.	.	.	.	.
!	!	!LO:TX:a:t=e	!LO:LB:g=original	!	!	!	!	!	!	!	!	!	!	!
16G\LL	6 5	16ee\LL	16ddd\LL	.	16G\LL	-ra	2A\	no-	2e\	no-	(4dd\	no-	8a/L	8ee\L
16E\	.	16ee\	16ddd\	.	16F#\JJ	.	.	.	.	.	.	.	.	.
16F#\	.	16ee\	16ddd\	.	16F#\LL	pro	.	.	.	.	.	.	16a/L	16ee\L
16G\JJ	.	16ee\	16ddd\JJ	.	16G\JJ	.	.	.	.	.	.	.	16a/JJ	16ee\JJ
!LO:TX:a:t=P:problem:mixed beam	!	!	!	!	!LO:TX:a:t=P:problem:mixed beam	!	!	!	!	!	!	!	!	!
8A\L	.	16ee\	16ccc#\LL	.	8A\L	no-	.	.	.	.	4cc#\)	.	8a/L	8ee\L
.	.	16ee\	16ccc#\	.	.	.	.	.	.	.	.	.	.	.
8AA/J	.	16ee\	16ccc#\	.	8AA/J	.	.	.	.	.	.	.	8a/J	8ee\J
.	.	16ee\JJ	16ccc#\JJ	.	.	.	.	.	.	.	.	.	.	.
*	*	*Xtremolo	*	*	*	*	*	*	*	*	*	*	*	*
=35	=35	=35	=35	=35	=35	=35	=35	=35	=35	=35	=35	=35	=35	=35
!	!	!LO:LB:g=original	!	!	!	!	!	!	!	!	!	!	!	!
4D\	.	4ff#\	4ddd\	1ryy	4D\	-bis	4A\	-bis	4f#\	-bis	4dd\	-bis	4dd\	4ff#\
4r	.	4r	8r	.	4r	.	4r	.	4r	.	4r	.	4r	4r
.	.	.	(32dd\LLL	.	.	.	.	.	.	.	.	.	.	.
.	.	.	32ee\)	.	.	.	.	.	.	.	.	.	.	.
.	.	.	32ff#\	.	.	.	.	.	.	.	.	.	.	.
.	.	.	32gg\JJJ	.	.	.	.	.	.	.	.	.	.	.
2r	.	16d/LL	4.aa\	.	2r	.	2r	.	2r	.	2r	.	2r	2r
.	.	16f#/	.	.	.	.	.	.	.	.	.	.	.	.
.	.	16a/	.	.	.	.	.	.	.	.	.	.	.	.
.	.	16f#/JJ	.	.	.	.	.	.	.	.	.	.	.	.
.	.	16d/LL	.	.	.	.	.	.	.	.	.	.	.	.
.	.	16a/	.	.	.	.	.	.	.	.	.	.	.	.
.	.	16f#/	(32gg\LLL	.	.	.	.	.	.	.	.	.	.	.
.	.	.	32ff#\	.	.	.	.	.	.	.	.	.	.	.
.	.	16a/JJ	32ee\)	.	.	.	.	.	.	.	.	.	.	.
.	.	.	32dd\JJJ	.	.	.	.	.	.	.	.	.	.	.
=36	=36	=36	=36	=36	=36	=36	=36	=36	=36	=36	=36	=36	=36	=36
!	!	!	!	!	!LO:LB:g=original	!	!LO:LB:g=original	!	!	!	!	!	!	!LO:LB:g=original
!LO:TX:a:t=1	!	!	!	!	!LO:TX:a:t=1	!	!LO:TX:a:t=1	!	!LO:TX:a:t=1	!	!	!	!	!
1r	.	16e/LL	8cc#\L	1ryy	1r	.	1r	.	1r	.	1r	.	1r	1r
.	.	16g/	.	.	.	.	.	.	.	.	.	.	.	.
.	.	16a/	8cc#\	.	.	.	.	.	.	.	.	.	.	.
.	.	16g/JJ	.	.	.	.	.	.	.	.	.	.	.	.
.	.	16e/LL	8cc#\	.	.	.	.	.	.	.	.	.	.	.
.	.	16a/	.	.	.	.	.	.	.	.	.	.	.	.
.	.	16g/	8cc#\J	.	.	.	.	.	.	.	.	.	.	.
.	.	16a/JJ	.	.	.	.	.	.	.	.	.	.	.	.
.	.	16d/LL	8dd\	.	.	.	.	.	.	.	.	.	.	.
.	.	16a/	.	.	.	.	.	.	.	.	.	.	.	.
.	.	16f#/	4aa\	.	.	.	.	.	.	.	.	.	.	.
.	.	16a/JJ	.	.	.	.	.	.	.	.	.	.	.	.
.	.	16d/LL	.	.	.	.	.	.	.	.	.	.	.	.
.	.	16a/	.	.	.	.	.	.	.	.	.	.	.	.
.	.	16f#/	(32gg\LLL	.	.	.	.	.	.	.	.	.	.	.
.	.	.	32ff#\	.	.	.	.	.	.	.	.	.	.	.
.	.	16a/JJ	32ee\)	.	.	.	.	.	.	.	.	.	.	.
.	.	.	32dd\JJJ	.	.	.	.	.	.	.	.	.	.	.
=37	=37	=37	=37	=37	=37	=37	=37	=37	=37	=37	=37	=37	=37	=37
2r	.	16c#/LL	8gg\L	1ryy	2r	.	2r	.	2r	.	2r	.	2r	2r
.	.	16a/	.	.	.	.	.	.	.	.	.	.	.	.
.	.	16e/	8gg\	.	.	.	.	.	.	.	.	.	.	.
.	.	16a/JJ	.	.	.	.	.	.	.	.	.	.	.	.
.	.	16c#/LL	8gg\	.	.	.	.	.	.	.	.	.	.	.
.	.	16a/	.	.	.	.	.	.	.	.	.	.	.	.
.	.	16e/	8gg\J	.	.	.	.	.	.	.	.	.	.	.
.	.	16a/JJ	.	.	.	.	.	.	.	.	.	.	.	.
16D\LL	.	8f#/	8ff#\	.	8r	.	8r	.	8r	.	8r	.	4dd\	4ff#\
16A\	.	.	.	.	.	.	.	.	.	.	.	.	.	.
!	!	!	!	!	!	!	!	!	!	!	!LO:LB:g=original	!	!	!
!	!	!	!LO:N:vis=4.	!	!	!	!	!	!	!	!	!	!	!
16F#\	.	4a/	4aa\	.	8D\	Vas	8A\	Vas	8f#\	Vas	8dd\	Vas	.	.
16A\JJ	.	.	.	.	.	.	.	.	.	.	.	.	.	.
16D\LL	.	.	.	.	8D\	ho-	8A\	ho-	8f#\	ho-	8dd\	ho-	8r	8r
16A\	.	.	.	.	.	.	.	.	.	.	.	.	.	.
16F#\	.	32g/LLL	(32gg\LLL	.	8D\	-no-	8A\	-no-	8f#\	-no-	8dd\	-no-	8dd\	8ff#\
.	.	32f#/	32ff#\	.	.	.	.	.	.	.	.	.	.	.
16A\JJ	.	32e/	32ee\	.	.	.	.	.	.	.	.	.	.	.
.	.	32d/JJJ	32dd\JJJ)	.	.	.	.	.	.	.	.	.	.	.
=38	=38	=38	=38	=38	=38	=38	=38	=38	=38	=38	=38	=38	=38	=38
!LO:LB:g=original	!	!	!	!	!	!	!	!	!	!	!	!	!	!
*	*	*tremolo	*	*	*	*	*	*	*	*	*	*	*	*
16E\LL	6	8c#/L	8cc#\L	1ryy	4.C#/	-ra-	4.A\	-ra-	4.g\	-ra-	4.ee\	-ra-	4ee\	4gg\
16A\	.	.	.	.	.	.	.	.	.	.	.	.	.	.
16G\	.	8c#/	8cc#\	.	.	.	.	.	.	.	.	.	.	.
16A\JJ	.	.	.	.	.	.	.	.	.	.	.	.	.	.
16E\LL	.	8c#/	8cc#\	.	.	.	.	.	.	.	.	.	8r	8r
16A\	.	.	.	.	.	.	.	.	.	.	.	.	.	.
16G\	.	8c#/J	8cc#\J	.	8C#/	-bi-	8A\	-bi-	8g\	-bi-	8ee\	-bi-	8ee\	8gg\
16A\JJ	.	.	.	.	.	.	.	.	.	.	.	.	.	.
16D\LL	.	8d/	8dd\	.	8D/	-le	8A\	-le	8f#\	-le	8dd\	-le	4dd\	4ff#\
16A\	.	.	.	.	.	.	.	.	.	.	.	.	.	.
16F#\	.	4a/	4aa\	.	4D/	Vas	4A\	vas	4f#\	Vas	4dd\	Vas	.	.
16A\JJ	.	.	.	.	.	.	.	.	.	.	.	.	.	.
16D\LL	.	.	.	.	.	.	.	.	.	.	.	.	8r	8r
16A\	.	.	.	.	.	.	.	.	.	.	.	.	.	.
16F#\	.	32g/LLL	(32gg\LLL	.	8D/	in-	8A\	in-	8f#\	in-	8dd\	in-	8dd\	8ff#\
.	.	32f#/	32ff#\	.	.	.	.	.	.	.	.	.	.	.
16A\JJ	.	32e/	32ee\	.	.	.	.	.	.	.	.	.	.	.
.	.	32d/JJJ	32dd\JJJ)	.	.	.	.	.	.	.	.	.	.	.
=39	=39	=39	=39	=39	=39	=39	=39	=39	=39	=39	=39	=39	=39	=39
!	!	!	!	!	!	!	!	!	!	!	!	!	!LO:LB:g=original	!
16C#\LL	6 5	8g/LL	8gg\L	1ryy	8C#/	-sig-	8A\	-ſig-	8g\	-ſig-	8ee\	-ſig-	4ee\	4gg\
16A\	.	.	.	.	.	.	.	.	.	.	.	.	.	.
16E\	.	8g/	8gg\	.	16C#/	-ne	16A\	-ne	16g\	-ne	16ee\	-ne	.	.
16A\JJ	.	.	.	.	16C#/	de-	16A\	de-	16g\	de-	16ee\	de-	.	.
!	!	!	!	!	!	!	!	!	!LO:LB:g=original	!	!	!	!	!
16C#\LL	.	8g/	8gg\	.	8C#/	-vo-	8A\	-vo-	8g\	-Vo-	8ee\	-vo-	8r	8r
16A\	.	.	.	.	.	.	.	.	.	.	.	.	.	.
16E\	.	8g/JJ	8gg\J	.	8C#/	-ti-	8A\	-ti-	8g\	-ti-	8ee\	-ti-	8ee\	8gg\
*	*	*Xtremolo	*Xtremolo	*	*	*	*	*	*	*	*	*	*	*
16A\JJ	.	.	.	.	.	.	.	.	.	.	.	.	.	.
8D\	.	8f#/	8ff#\	.	8D/	-o-	8A\	-o-	8f#\	-o-	8dd\	-o-	4dd\	4ff#\
8r	.	8r	8r	.	8D/	-nis	8A\	-nis	8f#\	-nis	8dd\	-nis	.	.
4r	.	4r	4r	.	8D/	o-	8A\	o-	8f#\	o-	8dd\	o-	4r	4r
.	.	.	.	.	8D/	-ra	8A\	-ra	8f#\	-ra	8dd\	-ra	.	.
=40	=40	=40	=40	=40	=40	=40	=40	=40	=40	=40	=40	=40	=40	=40
!	!	!LO:LB:g=original	!	!	!	!	!	!	!	!	!	!	!	!
*	*	*	*	*	*	*ij	*	*ij	*	*	*	*	*	*
8d\L	.	4.dd\	4.ff#\	1ryy	8d\	o-	8A\	o-	4.f#\	O-	4.dd\	O-	4dd\	4ff#\
8d\J	.	.	.	.	8d\	-ra	8A\	-ra	.	.	.	.	.	.
4r	.	.	.	.	4r	.	4r	.	.	.	.	.	4r	4r
.	.	24ee\LL	24gg\LL	.	.	.	.	.	24g\LL	.	24ee\LL	.	.	.
.	.	24dd\	24ff#\	.	.	.	.	.	24f#\	.	24dd\	.	.	.
.	.	24ee\JJ	24gg\JJ	.	.	.	.	.	24g\JJ	.	24ee\JJ	.	.	.
!	!	!	!	!	!LO:LB:g=original	!	!	!	!	!	!	!	!	!
8B\L	n	4.dd\	4.ff#\	.	8B\	o-	8B\	o-	4.f#\	.	4.dd\	.	2r	2r
8B\J	.	.	.	.	8B\	-ra	8B\	-ra	.	.	.	.	.	.
*	*	*	*	*	*	*Xij	*	*Xij	*	*	*	*	*	*
4r	.	.	.	.	4r	.	4r	.	.	.	.	.	.	.
.	.	24ee\LL	24gg\LL	.	.	.	.	.	24g\LL	.	24ee\LL	.	.	.
.	.	24dd\	24ff#\	.	.	.	.	.	24f#\	.	24dd\	.	.	.
.	.	24ee\JJ	24gg\JJ	.	.	.	.	.	24g\JJ	.	24ee\JJ	.	.	.
=41	=41	=41	=41	=41	=41	=41	=41	=41	=41	=41	=41	=41	=41	=41
!	!	!	!LO:LB:g=original	!	!	!	!	!	!	!	!LO:LB:g=original	!	!	!
*	*	*tremolo	*tremolo	*	*	*	*	*	*	*	*	*	*	*
8r	.	16dd\LL	16ff#\LL	1ryy	8r	.	8r	.	8f#\	-ra	8dd\	-ra	8r	8r
.	.	16dd\	16ff#\	.	.	.	.	.	.	.	.	.	.	.
!LO:TX:a:t=P:problem:mixed beam	!	!	!	!	!	!	!	!	!	!	!	!	!	!
8B\L	5	16dd\	16ff#\	.	8G\	pro	8B\	o-	8f#\	pro	8dd\	pro	8dd\	8ff#\
.	.	16dd\JJ	16ff#\JJ	.	.	.	.	.	.	.	.	.	.	.
!	!	!	!	!	!LO:TX:a:t=P:problem:mixed beam	!	!	!	!	!	!	!	!	!
8A\	4	16dd\LL	16ee\LL	.	8A\L	no-	4A\	-ra	4e\	no-	4cc#\	no-	4a/	4ee\
.	.	16dd\	16ee\	.	.	.	.	.	.	.	.	.	.	.
8AA/J	3	16dd\	16ee\	.	8AA/J	.	.	.	.	.	.	.	.	.
.	.	16dd\JJ	16ee\JJ	.	.	.	.	.	.	.	.	.	.	.
4D\	.	4dd\	4ff# 4a\	.	4D\	-bis	4A\	pro	4f#\	-bis	4dd\	-bis	4dd\	4ff#\
*	*	*	*	*	*	*	*	*	*	*ij	*	*	*	*
4A\	.	4ee 4a/	4ccc# 4a\	.	4A\	no-	4c#\	no-	4a\	no-	4ee\	no-	4ee\	4aa\
=42	=42	=42	=42	=42	=42	=42	=42	=42	=42	=42	=42	=42	=42	=42
4d\	.	4ff# 4a 4d/	4ddd 4dd 4f# 4d\	1ryy	4d\	-bis	4d\	-bis.	4a\	-bis	4ff#\	-bis.	4ff#\	4aa\
*	*	*	*	*	*	*	*	*	*	*Xij	*	*	*	*
4r	.	4r	4r	.	4r	.	4r	.	4r	.	4r	.	4r	4r
!	!	!	!	!	!	!	!	!	!	!	!	!	!LO:TX:b:t=Vertatur\n Subbitto	!
2r	.	2r	2r	.	2r	.	2r	.	2r	.	2r	.	2r	2r
==	==	==	==	==	==	==	==	==	==	==	==	==	==	==
*-	*-	*-	*-	*-	*-	*-	*-	*-	*-	*-	*-	*-	*-	*-
!!!system-decoration: [g1][g2][g3]s10
!!!RDF**kern: > = above
!!!RDF**kern: < = below
!!!ENC: Marta Lawrence
!!!END: 2020-06-23
!!!ENC: Andrzej Kubiczek
!!!END: 2020-06-20
